X:168
T:Andy McGann's No. 2
M:4/4
L:1/8
K:D
d F3 AGFE|D2FD EDB,D|A,DFA (3Bcd AF| E3 D E2FA|
|1 d F3 AGFE|DEFD EDB,D|A,DFA (3Bcd AF| EA,CE D2FA:|
|2 d3 B c3 A|B3 d AGFE|D2FA (3Bcd AF|EA,CE D2FA||
d2 fd edfd|B3 d AGFE|D2FA (3Bcd AF|
|1 E3 D E2FA| d2 fd edfd|B3 d AGFE|D FA (3Bcd AF|EA,CE D2FA:|
|2 E3 D E2de|faba f d3| B3 d AGFE|D2FA (3Bcd AF|EA,CE D3 ||
fgaf bage|dfec defg|(3agf ge fdec|dABG FAdB :|
